X:1
T:Title
%%score { ( 1 3 5 ) | ( 2 4 ) }
L:1/8
M:6/8
K:D
V:1 treble nm="Grand Piano"
V:3 treble 
V:5 treble 
V:2 bass 
V:4 bass 
V:1
 z3 z2[Q:1/4=75] [DF]/[EG]/ | [FA]>[=F^G][^FA] E>FE | D>FB A2 F/G/ | A>EF G>[CF][CE] | %4
 [DF]3- [DF]2 [DF]/[EG]/ | [FA]>[=F^G][^FA] E>FE |[M:5/8] D>FB A2 |[M:1/8] [FA]/[FA]/ | %8
[M:3/4] ^G>F Ed- d/c/B | A6 |[M:1/8] B/c/ |[M:3/4] [Fd]>[Fd] [Fd][Gc]- [Gc]/[Gc]/[GA] | [GB]6 | %13
 B>c dc- c/B/F | [FA]6 | [EG]>[^DF] [EG] [Gc]2 [A,GA] |[M:7/8] [A,FA]>[A,DF][DA] [Dd]3 D/[DE]/ | %17
[M:27/32] z/ A/4-A/4-A/4-A/4-A/4-A/4-A/-<A/ z/ [B,G]/4-[B,G]/4-[B,G]/4-[B,G]/4-[B,G]/-<[B,G]/[K:bass][G,CE]/4-[G,CE]/-<[G,CE]/- | %18
[M:5/8] [G,CE]3/4 z/4 z z z2 |] %19
V:2
 z3 z2 [D,A,]/[D,A,]/ | [D,D]>[D,D][D,D] [G,A,C]>[G,A,C][G,A,C] | %2
 [F,A,]>[D,A,D][D,G,D] [D,F,D]2 [D,A,D]/[E,A,C]/ | [F,A,D]>[G,A,C][F,A,D] [E,A,C]>[A,,A,][A,,A,] | %4
 [D,A,]3- [D,A,]2 [D,A,]/[D,A,]/ | [D,D]>[D,D][D,D] [G,A,C]>[G,A,C][G,A,C] | %6
[M:5/8] [F,A,]>[D,A,D][D,G,D] [D,F,D]2 |[M:1/8] [D,A,]/[D,D]/ | %8
[M:3/4] [E,DE]>[E,A,D] [E,^G,D][E,G,E]- [E,G,E]/[E,A,E]/[E,DE] | [CE]2 D E3 | %10
[M:1/8] [A,CG]/[A,EG]/ |[M:3/4][K:bass] [D,D]>[D,A,] [D,A,][E,A,]- [E,A,]/[E,A,]/[E,C] | %12
 [A,C]2 A, A,2[K:treble] [A,CG] | [A,CG]>[A,EG] [A,B,G][A,EG]- [A,EG]/[A,DF]/[K:bass][A,D] | %14
 [D,D]2 D,/D,/ D,2 [D,A,D]/[D,A,D]/ | [A,,A,]>[A,,A,] .[A,,A,]2 z/[K:treble] B/[K:bass]A,, | %16
[M:7/8] D,>D,[D,F,] [B,,F,]3 [B,,F,]/[B,,^G,]/ | %17
[M:27/32] z/ F,/4-F,/4-F,/4-F,/4-F,/4-F,/4-F,/-<F,/ z/4 z/4 z/4 z/4 z/4 z/4 z/4 z/4 z/ A,,/4-A,,/-<A,,/- | %18
[M:5/8] A,,3/4 z/4 z z z2 |] %19
V:3
 x6 | x6 | x6 | x6 | x6 | x6 |[M:5/8] x5 |[M:1/8] x |[M:3/4] x6 | z2 F G3 |[M:1/8] x |[M:3/4] x6 | %12
 z2 C C2 A | x6 | z2 D/D/ D2 F/F/ | x6 |[M:7/8] x7 | %17
[M:27/32] z/4 z/4 z/4 z/4 z/4 z/4 z/4 z/4 z/ [A,DF]/4-[A,DF]/4-[A,DF]/-<[A,DF]/ z/4 z/4 z/ [A,F]3/4[K:bass] z/4 z/4 z/ | %18
[M:5/8] x5 |] %19
V:4
 x6 | x6 | x6 | x6 | x6 | x6 |[M:5/8] x5 |[M:1/8] x |[M:3/4] x6 | A,6 |[M:1/8] x | %11
[M:3/4][K:bass] x6 | x5[K:treble] x | x5[K:bass] x | x6 | z2 z .[A,,A,]3[K:treble][K:bass] | %16
[M:7/8] x7 | %17
[M:27/32] [A,,A,]/A,,/4-A,,/4-A,,/4-A,,/4-A,,/-<A,,/A,,/-<A,,/A,,/4-A,,/4-A,,/-<A,,/.A,,3/4 z/4 z/4 z/ | %18
[M:5/8] D,-D,- D,3 |] %19
V:5
 x6 | x6 | x6 | x6 | x6 | x6 |[M:5/8] x5 |[M:1/8] x |[M:3/4] x6 | x6 |[M:1/8] x |[M:3/4] x6 | x6 | %13
 x6 | x6 | x6 |[M:7/8] x7 | %17
[M:27/32] [DF]/D/4-D/4-D/4-D/4-D/-<D/ z/4 z/4 z/ C/4-C/4-C/-<C/.C3/4[K:bass] z/4 z/4 z/ | %18
[M:5/8] [F,D]-[F,D]- [F,D]3 |] %19

